src/assets/whatsapp.svg

<svg width="20" height="20" viewBox="0 0 20 20" fill="none" xmlns="http://www.w3.org/2000/svg">
<path fill-rule="evenodd" clip-rule="evenodd" d="M15.6687 4.32548C14.9307 3.58614 14.0527 2.99991 13.0854 2.60073C12.1181 2.20155 11.0808 1.99738 10.0337 2.00003C5.64281 2.00003 2.06833 5.55666 2.06656 9.92847C2.06656 11.3257 2.43305 12.6893 3.12967 13.8923L2 18L6.22318 16.8969C7.39135 17.5298 8.70011 17.8616 10.0302 17.8622H10.0337C14.4237 17.8622 17.9982 14.3056 18 9.93377C18.003 8.89203 17.7985 7.86002 17.3984 6.8974C16.9982 5.93478 16.4104 5.06063 15.6687 4.32548ZM10.0337 16.5242H10.031C8.84504 16.5243 7.68086 16.2067 6.66067 15.6048L6.41929 15.4617L3.91325 16.1161L4.58147 13.6847L4.4244 13.4356C3.76132 12.385 3.4103 11.1692 3.41187 9.92847C3.41364 6.29501 6.3838 3.33895 10.0364 3.33895C10.9062 3.33703 11.7679 3.50683 12.5714 3.83853C13.3749 4.17023 14.1043 4.65725 14.7174 5.27138C15.3339 5.88259 15.8224 6.60933 16.1549 7.4096C16.4875 8.20986 16.6573 9.06779 16.6547 9.93377C16.6529 13.5672 13.6827 16.5242 10.0337 16.5242ZM13.6659 11.588C13.4662 11.4882 12.4883 11.0095 12.3055 10.9433C12.1236 10.877 11.9913 10.8443 11.8582 11.0422C11.7251 11.24 11.3435 11.686 11.2273 11.8185C11.111 11.951 10.9948 11.9669 10.796 11.868C10.5972 11.7691 9.95561 11.5597 9.1951 10.885C8.6032 10.3595 8.20387 9.71121 8.08762 9.51249C7.97137 9.31377 8.0752 9.2069 8.17547 9.10799C8.2651 9.01967 8.37425 8.87659 8.47364 8.76089C8.57303 8.64519 8.60587 8.56305 8.67242 8.43057C8.73898 8.29809 8.70614 8.1824 8.65556 8.08348C8.60587 7.98368 8.20742 7.00863 8.04147 6.61207C7.88085 6.22788 7.71668 6.27911 7.59422 6.27381C7.46739 6.26865 7.34046 6.26629 7.21352 6.26674C7.11258 6.2693 7.01327 6.29259 6.9218 6.33515C6.83033 6.3777 6.74868 6.4386 6.68196 6.51404C6.49916 6.71276 5.98535 7.19145 5.98535 8.1665C5.98535 9.14155 6.69883 10.0839 6.79821 10.2164C6.8976 10.3489 8.2021 12.3493 10.1988 13.2078C10.6744 13.4118 11.0454 13.5337 11.3338 13.6255C11.8103 13.7766 12.2442 13.7545 12.5877 13.7041C12.9701 13.6476 13.7653 13.2254 13.9312 12.7626C14.0971 12.2999 14.0971 11.9033 14.0475 11.8203C13.9978 11.7373 13.8638 11.6869 13.6659 11.588Z" fill="#E4E5EA"/>
</svg>

<svg xmlns="http://www.w3.org/2000/svg" width="20" height="20" fill="none"><path fill="#E4E5EA" fill-rule="evenodd" d="M15.669 4.325A7.948 7.948 0 0 0 10.034 2C5.643 2 2.068 5.557 2.067 9.928c0 1.398.366 2.761 1.063 3.964L2 18l4.223-1.103a8 8 0 0 0 3.807.965h.004c4.39 0 7.964-3.556 7.966-7.928a7.852 7.852 0 0 0-2.331-5.609Zm-5.635 12.2h-.003a6.632 6.632 0 0 1-3.37-.92l-.242-.143-2.506.654.668-2.431-.157-.25a6.555 6.555 0 0 1-1.012-3.507c.002-3.633 2.972-6.59 6.624-6.59a6.606 6.606 0 0 1 4.681 1.933 6.55 6.55 0 0 1 1.938 4.663c-.002 3.633-2.972 6.59-6.621 6.59Zm3.632-4.937c-.2-.1-1.178-.579-1.36-.645-.182-.066-.315-.099-.448.1-.133.197-.514.643-.63.776-.117.132-.233.148-.432.049-.199-.099-.84-.308-1.6-.983a5.972 5.972 0 0 1-1.108-1.373c-.117-.198-.013-.305.087-.404.09-.088.2-.231.299-.347.099-.116.132-.198.198-.33.067-.133.034-.249-.016-.348-.05-.1-.449-1.074-.615-1.47-.16-.385-.324-.334-.447-.34a8.614 8.614 0 0 0-.38-.006.736.736 0 0 0-.532.247c-.183.199-.697.677-.697 1.652 0 .976.714 1.918.813 2.05.1.133 1.404 2.133 3.4 2.992.476.204.847.326 1.136.418.476.15.91.129 1.254.078.382-.056 1.177-.479 1.343-.941.166-.463.166-.86.117-.943-.05-.083-.184-.133-.382-.232Z" clip-rule="evenodd"/></svg>
